X:1
T:Title
%%score { ( 1 3 ) | ( 2 4 ) }
L:1/8
Q:1/4=84
M:6/8
K:F
V:1 treble nm="Grand Piano"
V:3 treble 
V:2 bass 
V:4 bass 
V:1
 cdc F[FB][FA] | [DG]FE F3 | [EG][EG][EG] AAc | z3 [Ec]3 | cdc FBA | AGF d3 | fed d<cA | %7
w: John~R.~Sweney * * * * *|||||||
 [Ec][EB]E F3 |[M:9/8] cdc z CC CGA | z3 G6 | z3 .[ce]6 | z3 [FA]6 | cdc z CC CGA | z3 d6 | %14
w: |||||||
 z3 .[Ac]6 |[M:3/4] z2 z F3- | F4 z2 |] %17
w: |||
V:2
 [F,A,F][F,B,F][F,A,F] [F,A,][E,D][F,C] | [B,,B,][C,G,C][C,G,C] [F,A,C]3 | %2
 [C,C][C,C][C,C] [F,CF][F,CF][F,A,F] | [D,G,][G,C][G,,G,] .[C,C]3 | %4
 [F,A,F][F,B,F][F,A,F] [F,A,][K:treble][F,DF][F,CF] | [F,_EF][G,EF][A,E] [B,DF]3 | %6
 [B,DF][B,CF][B,F][K:bass] [F,B,F]<[F,A,F][F,CF] | [C,C][C,C][C,B,C] [F,A,C]3 | %8
[M:9/8] z3 [F,A,C][F,A,][F,A,] [F,A,][F,B,C][F,CF] | [F,CF][F,B,C][F,A,C] [C,C]2 [C,C] [C,C]3 | %10
 EFG[K:bass] [C,G,]C,C, C,[C,G,][C,C] | z FC, F,2 F, F,3 | %12
 z3 [F,A,C][F,A,][F,A,] [F,A,][F,B,C][K:treble][F,CF] | %13
 [F,_EF][G,EF][A,EF] [B,DF]2[K:bass] [B,,B,] [B,,B,]3 | dcB[K:bass] C,C,C, C,C,C, | %15
[M:3/4] C,2 [C,B,C] [F,A,C]2 [F,B,] | [F,A,]4 z2 |] %17
V:3
 x6 | x6 | x6 | [F=B][Ge][=B,Fd] z2 _B, | x6 | x6 | x6 | x6 |[M:9/8] z3 .F6 | AGF E2 E E3 | %10
 GAB z G,G, G,[Bd][Ac] | [GB]A[CEG] C2 C C3 | z3 .F6 | ABc z2 F F3 | fed FFF F[FBd][FAc] | %15
[M:3/4] [CGB]2 .E2 z D | C4 z2 |] %17
V:4
 x6 | x6 | x6 | x6 | x4[K:treble] x2 | x6 | x3[K:bass] x3 | x6 |[M:9/8] x9 | x9 | x3[K:bass] x6 | %11
 .[C,C]3 z3 z3 | x8[K:treble] x | x5[K:bass] x4 | x3[K:bass] x6 |[M:3/4] x6 | x6 |] %17

